build/category/HookOutline.svg

<svg xmlns="http://www.w3.org/2000/svg" fill="none" viewBox="0 0 24 24" focusable="false"><path d="M0 0H24V24H0z"/><path fill="#74767B" fill-rule="evenodd" d="M10.6502 2.65C10.6502 2.29101 10.3591 2 10.0002 2C9.64117 2 9.35016 2.29101 9.35016 2.65L9.35016 5L8.30864 5C7.91872 5 7.5494 5.17502 7.30249 5.47679L6.06875 6.98471C5.14119 8.1184 5.16795 9.75619 6.13205 10.859L9.74162 14.9877C10.3844 15.723 11.2964 16.0628 12.1881 16.0074C13.3981 16.1031 14.3502 17.1153 14.3502 18.35C14.3502 19.6478 13.298 20.7 12.0002 20.7C10.7023 20.7 9.65016 19.6478 9.65016 18.35C9.65016 17.991 9.35914 17.7 9.00016 17.7C8.64117 17.7 8.35016 17.991 8.35016 18.35C8.35016 20.3658 9.98432 22 12.0002 22C14.016 22 15.6502 20.3658 15.6502 18.35C15.6502 17.0596 14.9806 15.9257 13.97 15.2766C14.0711 15.1883 14.1676 15.092 14.2588 14.9877L17.8683 10.859C18.8324 9.75619 18.8592 8.1184 17.9316 6.98471L16.6978 5.47679C16.4509 5.17501 16.0816 5 15.6917 5L14.6502 5L14.6502 2.65C14.6502 2.29101 14.3591 2 14.0002 2C13.6412 2 13.3502 2.29101 13.3502 2.65L13.3502 5L10.6502 5L10.6502 2.65ZM8.30864 6.3L10.0002 6.3L14.0002 6.3L15.6917 6.3L16.9255 7.80792C17.4511 8.45035 17.4359 9.37843 16.8896 10.0033L13.2801 14.1321C12.9837 14.4711 12.5863 14.6618 12.1763 14.7041C12.1179 14.7014 12.0592 14.7 12.0002 14.7C11.962 14.7 11.9247 14.7032 11.8883 14.7095C11.4558 14.6813 11.0322 14.4888 10.7203 14.1321L7.11077 10.0033C6.56444 9.37842 6.54928 8.45034 7.07489 7.80792L8.30864 6.3ZM12.4952 8.05076C12.2218 7.77739 11.7786 7.77739 11.5052 8.05076L11.081 8.475C10.8076 8.74836 10.8076 9.19158 11.081 9.46495L11.5052 9.88918C11.7786 10.1625 12.2218 10.1625 12.4952 9.88918L12.9194 9.46494C13.1928 9.19158 13.1928 8.74836 12.9194 8.475L12.4952 8.05076Z"/></svg>

<svg xmlns="http://www.w3.org/2000/svg" fill="none" viewBox="0 0 24 24" focusable="false"><path fill="#74767B" fill-rule="evenodd" d="M10.65 2.64c0-.35-.3-.64-.65-.64-.36 0-.65.29-.65.64V5H8.3c-.39 0-.76.17-1 .47L6.06 6.98c-.92 1.13-.9 2.77.07 3.87l3.61 4.13c.64.74 1.55 1.08 2.44 1.02 1.21.1 2.17 1.11 2.17 2.35A2.36 2.36 0 0 1 12 20.7c-1.3 0-2.35-1.06-2.35-2.35 0-.36-.3-.65-.65-.65-.36 0-.65.29-.65.65C8.35 20.36 9.98 22 12 22c2.01 0 3.65-1.64 3.65-3.65 0-1.3-.67-2.43-1.68-3.08.1-.09.19-.18.28-.29l3.61-4.13c.97-1.1.99-2.74.07-3.87l-1.24-1.51c-.24-.3-.61-.47-1-.47h-1.04V2.64c0-.35-.3-.64-.65-.64-.36 0-.65.29-.65.64V5h-2.7zM8.3 6.3h7.39l1.23 1.5c.53.65.51 1.57-.04 2.2l-3.6 4.13c-.3.34-.7.53-1.11.57h-.29a1.66 1.66 0 0 1-1.16-.57L7.11 10c-.55-.63-.57-1.55-.04-2.2zm3.2 1.75c.27-.28.72-.28.99 0l.42.42c.28.27.28.72 0 .99l-.42.42c-.27.28-.72.28-.99 0l-.42-.42a.69.69 0 0 1 0-.99z"/></svg>
